svg/color/bcut.svg

<svg width="64" height="65" viewBox="0 0 64 65" fill="none" xmlns="http://www.w3.org/2000/svg">
<rect y="0.303711" width="64" height="64" rx="32" fill="white"/>
<rect x="0.5" y="0.803711" width="63" height="63" rx="31.5" stroke="#070B14" stroke-opacity="0.15"/>
<path d="M16.4016 25.2496C16.5735 27.1001 16.8281 28.698 17.1096 30.0462L39.3863 30.1516C39.3863 30.1516 43.7789 37.9101 43.7183 37.9101C41.2505 43.5457 32.1888 51.1403 32.1804 51.1489C31.014 51.0367 24.361 44.3828 24.361 44.3828C24.361 44.3828 22.5304 44.3713 20.9628 44.3682C19.8099 44.366 18.8002 44.3682 18.7682 44.3828C23.4541 50.9245 32.1012 56.7758 32.1804 56.7413C42.5704 50.0097 48.9571 37.9101 48.9571 37.9101L41.7427 25.2496H16.4016Z" fill="#006BCD"/>
<path fill-rule="evenodd" clip-rule="evenodd" d="M52.487 15.5062C52.8668 26.2076 50.8042 32.7493 50.8042 32.7493L50.7955 32.7407L47.4902 26.9757L47.8267 20.2873C47.8267 20.2873 16.2315 20.2183 16.1798 20.2873C16.1798 30.5745 18.8637 35.5714 18.8637 35.5714H27.4693C28.3569 33.8469 30.1558 32.663 32.2231 32.663C35.166 32.663 37.5652 35.0622 37.5652 38.0051C37.5652 40.948 35.166 43.3472 32.2231 43.3472C30.2445 43.3472 28.5181 42.2691 27.5948 40.6719H16.1798C11.2864 34.0093 11.4677 15.5062 11.4677 15.5062C11.4677 15.5062 52.4784 15.5579 52.487 15.5062ZM29.47 37.9965C29.47 36.4776 30.7041 35.2435 32.2231 35.2435C33.742 35.2435 34.9761 36.4776 34.9761 37.9965C34.9761 39.5154 33.742 40.7495 32.2231 40.7495C30.7041 40.7495 29.47 39.5154 29.47 37.9965Z" fill="#0082FE"/>
</svg>

<svg xmlns="http://www.w3.org/2000/svg" width="64" height="65" fill="none" viewBox="0 0 64 65"><rect width="64" height="64" y=".304" fill="#fff" rx="32"/><rect width="63" height="63" x=".5" y=".804" stroke="#070B14" stroke-opacity=".15" rx="31.5"/><path fill="#006BCD" d="M16.402 25.25a43 43 0 0 0 .708 4.796l22.276.106s4.393 7.758 4.332 7.758c-2.468 5.636-11.53 13.23-11.538 13.24-1.166-.112-7.819-6.766-7.819-6.766s-1.83-.012-3.398-.015c-1.153-.002-2.163 0-2.195.015 4.686 6.541 13.333 12.393 13.412 12.358 10.39-6.731 16.777-18.83 16.777-18.83L41.743 25.25z"/><path fill="#0082FE" fill-rule="evenodd" d="M52.487 15.506c.38 10.702-1.683 17.243-1.683 17.243l-.009-.008-3.305-5.765.337-6.689s-31.595-.069-31.647 0c0 10.288 2.684 15.284 2.684 15.284h8.605a5.35 5.35 0 0 1 4.754-2.908c2.943 0 5.342 2.4 5.342 5.342a5.35 5.35 0 0 1-5.342 5.342 5.34 5.34 0 0 1-4.628-2.675H16.18c-4.894-6.663-4.712-25.166-4.712-25.166s41.01.052 41.019 0M29.47 37.996a2.755 2.755 0 0 1 2.753-2.753 2.755 2.755 0 0 1 2.753 2.753 2.755 2.755 0 0 1-2.753 2.753 2.755 2.755 0 0 1-2.753-2.753" clip-rule="evenodd"/></svg>
